X: 130784
T: Miss Campbell's
S: "Music of Ireland - The Big Session" (DJ Taylor)
Z: B.Black
L: 1/8
M: 4/4
R: reel
K: Gdor
BG G2 DG G2|AF F2 cFAF|BG G2 DGBd|1 (3cBA fA Acdc :|2\
(3cBA fA G3 || F |
G2 g^f gag=f|dfcf ed (3cBA|Ggg^f gag=f|cAfA GABd|
(3gab a^f ga=fg| dfcf ed (3cBA|BGcA (3Bcd fg|\
fdcA BG G2 ||
